X:13
T: Es haett ein Maidlein ein Reiter hold
N: L0067F
O: Europa, Mitteleuropa, Deutschland
N: Souterliedekens 1540 ad Ps. 99
R: Lied
M: 3/4
L: 1/8
K: D
D2 | D4D2 | A4A2 | B4B2 | A4
A2 | B4B2 | d4A2 | =c4B2 | A6- | AGAB
=c2 | B3=cd2 | =c3BA2 | G2E2=F2 | E4
A2 | A4=c2 | A4D2 | =F2E4 | D4

